Gurmukhi/0A15.svg

<svg enable-background="new 0 0 336 592" viewBox="0 0 336 592" xmlns="http://www.w3.org/2000/svg"><path d="m174.987869 258.881775c11.860886 5.695343 20.631119 14.513397 29.080948 24.757049 3.934204-7.280883 5.320542-14.770477 6.472382-22.208892 1.944458-12.557373 1.596283-25.16864.360473-37.823899-.512725-5.250473-2.546295-6.574966-7.534286-6.550735-36.993149.179657-73.988053.009537-110.98098.211792-4.823486.026382-7.431976-1.417832-8.701553-6.046723-.964707-3.517349-2.664544-6.826995-3.765381-10.314895-.977524-3.097244.010772-5.290634 3.618423-5.535599 2.158364-.146561 4.323662-.269379 6.485855-.269546 56.490868-.004288 112.981728.007202 169.472588.02095 8.332092.002029 8.327972.015106 11.325745 7.935119.824768 2.178986 1.700622 4.338669 2.521148 6.519227 2.054108 5.458847.729065 7.518936-5.021423 7.558776-9.331391.064682-18.66687.17717-27.993836-.03247-4.430694-.099594-5.276275 1.618301-4.743759 5.730789 3.706879 28.627182.982941 56.450424-11.345031 82.87413-1.521546 3.261231-1.235825 5.749542.257766 8.83252 11.085602 22.882354 18.591568 46.988769 24.052521 71.764251 1.074112 4.873017-.782196 6.704865-5.51268 5.345032-6.714493-1.930084-13.305893-4.298401-20.045578-6.126831-3.401108-.922699-3.642059-3.532104-4.23555-6.057342-3.503754-14.907746-7.20932-29.753327-12.924728-44.009858-.42656-1.064026-.92273-2.100158-1.572342-3.569549-4.875794 4.129791-9.211624 8.44696-14.328827 11.819977-26.300629 17.336212-64.850708 11.419403-84.589249-13.057038-23.289787-28.880096-6.776749-70.685455 30.344071-76.97554 13.542984-2.29483 26.509216-.752121 39.303283 5.209305m-44.41336 24.155395c-10.452378 7.955384-14.701043 19.521149-11.261177 30.655335 3.695472 11.961548 14.779838 20.398407 27.630592 20.939514 16.645508.700897 30.188095-6.026215 40.958221-18.200439 10.188919-11.517243 8.53418-8.844178 1.171235-19.712647-.558762-.824829-1.202759-1.595764-1.846299-2.358704-15.645706-18.548492-36.964431-23.014648-56.652572-11.323059z"/></svg>

<svg version="1.1" id="Layer_1" xmlns="http://www.w3.org/2000/svg" xmlns:xlink="http://www.w3.org/1999/xlink" x="0px" y="0px"
	 width="100%" viewBox="0 0 336 592" enable-background="new 0 0 336 592" xml:space="preserve">
<path fill="#000000" opacity="1.000000" stroke="none" 
	d="
M174.987869,258.881775 
	C186.848755,264.577118 195.618988,273.395172 204.068817,283.638824 
	C208.003021,276.357941 209.389359,268.868347 210.541199,261.429932 
	C212.485657,248.872559 212.137482,236.261292 210.901672,223.606033 
	C210.388947,218.355560 208.355377,217.031067 203.367386,217.055298 
	C166.374237,217.234955 129.379333,217.064835 92.386406,217.267090 
	C87.562920,217.293472 84.954430,215.849258 83.684853,211.220367 
	C82.720146,207.703018 81.020309,204.393372 79.919472,200.905472 
	C78.941948,197.808228 79.930244,195.614838 83.537895,195.369873 
	C85.696259,195.223312 87.861557,195.100494 90.023750,195.100327 
	C146.514618,195.096039 203.005478,195.107529 259.496338,195.121277 
	C267.828430,195.123306 267.824310,195.136383 270.822083,203.056396 
	C271.646851,205.235382 272.522705,207.395065 273.343231,209.575623 
	C275.397339,215.034470 274.072296,217.094559 268.321808,217.134399 
	C258.990417,217.199081 249.654938,217.311569 240.327972,217.101929 
	C235.897278,217.002335 235.051697,218.720230 235.584213,222.832718 
	C239.291092,251.459900 236.567154,279.283142 224.239182,305.706848 
	C222.717636,308.968079 223.003357,311.456390 224.496948,314.539368 
	C235.582550,337.421722 243.088516,361.528137 248.549469,386.303619 
	C249.623581,391.176636 247.767273,393.008484 243.036789,391.648651 
	C236.322296,389.718567 229.730896,387.350250 222.991211,385.521820 
	C219.590103,384.599121 219.349152,381.989716 218.755661,379.464478 
	C215.251907,364.556732 211.546341,349.711151 205.830933,335.454620 
	C205.404373,334.390594 204.908203,333.354462 204.258591,331.885071 
	C199.382797,336.014862 195.046967,340.332031 189.929764,343.705048 
	C163.629135,361.041260 125.079056,355.124451 105.340515,330.648010 
	C82.050728,301.767914 98.563766,259.962555 135.684586,253.672470 
	C149.227570,251.377640 162.193802,252.920349 174.987869,258.881775 
M130.574509,283.037170 
	C120.122131,290.992554 115.873466,302.558319 119.313332,313.692505 
	C123.008804,325.654053 134.093170,334.090912 146.943924,334.632019 
	C163.589432,335.332916 177.132019,328.605804 187.902145,316.431580 
	C198.091064,304.914337 196.436325,307.587402 189.073380,296.718933 
	C188.514618,295.894104 187.870621,295.123169 187.227081,294.360229 
	C171.581375,275.811737 150.262650,271.345581 130.574509,283.037170 
z"/>
</svg>
